X:396
T:
R:polska
S:Ur von Baumgartens samling i Visby.
O:Gotland, Visby
M:3/4
L:1/16
K:Gm
GABc d=e^fa gfed|^fgag fdfa gf=ed|g2bg d4 B4|
d2fd c4 A4|d2de c2cd BABd|BAG^F F2G2G4::B2B,2 B,2B2 BdBF|
DFAc cecA BdBF|B2B,2 B,2B2 BdBF|DFAc cecA B2A2|
Ggbg Ld4 LB4|defd Lc4 LA4|d2de c2cd BABd|BAG^F F2G2 G4:|

